public/icons/picto-ecology.svg

<svg fill="none" height="69" viewBox="0 0 63 69" width="63" xmlns="http://www.w3.org/2000/svg" xmlns:xlink="http://www.w3.org/1999/xlink"><clipPath id="a"><path d="m0 0h63v69h-63z"/></clipPath><g clip-path="url(#a)"><path d="m37.627 45.6841c-3.0849-12.6492-14.0842-8.3836-13.2804-20.4784.3771-5.68-3.0643-4.8063-3.3179-3.1121-1.2186 8.2-.3959 11.7463.742 12.6132-.8569.139-4.6427-3.9051-3.7309-12.2802.3736-3.4485-3.0181-4.0562-3.2563-2.0049-.1851 1.641-.7164 4.1197-.7404 6.7443-.0462 4.9299 3.0249 8.315 3.0249 8.315-.3856-.4584-5.5785-5.6955-5.5785-14.6696 0-3.5533-3.49958-6.1092-3.69495-2.8135-.45588 7.649 1.06428 12.5806 3.67095 16.6505-2.97198-2.3765-5.49562-5.2663-7.45164-8.5329-.82606-1.3939-3.686423-1.2445-3.185987 1.2016.397607 1.9517 2.125137 4.9247 4.241697 8.7029 3.5716 6.3821 9.03523 7.4532 14.27953 10.3542 5.2443 2.9009 7.5597 10.0658 7.5597 10.0658z" fill="#efc73f"/><path d="m26.9092 57.2193c-.1631-.0001-.3219-.052-.4537-.1483-.1318-.0962-.2298-.2318-.2798-.3873-.0223-.0686-2.2931-6.9125-7.198-9.6281-1.2237-.6763-2.4851-1.2634-3.7053-1.8315-3.9418-1.8385-8.03096-3.7387-10.87419-8.8197l-.50215-.8943c-1.91776-3.4193-3.427634-6.1195-3.8218125-8.0317-.3256255-1.5912.4747265-2.513 1.3316325-2.8443 1.1774-.4549 2.64614.0343 3.27168 1.0917 1.16199 1.9517 2.54193 3.7646 4.11317 5.4037-1.51673-3.7541-2.05658-7.9785-1.75495-13.1779.10112-1.6977 1.01287-2.2727 1.82865-2.2504s1.68467.6334 2.35647 1.6307c.6824 1.0315 1.045 2.2421 1.042 3.4794-.0075 2.232.3337 4.4515 1.0112 6.5779 0-.0779 0-.1551 0-.2318.0171-1.9174.2965-3.7472.5141-5.22.0891-.5853.1714-1.1381.2263-1.6033.1353-1.2015 1.0934-1.9791 2.2776-1.847.3858.0512.756.185 1.0854.3923.3295.2074.6105.4834.8238.8093.3565.515.749 1.4282.5964 2.8237-.4181 3.8434.1611 6.6087.9255 8.4575-.1885-2.2693-.012-5.3042.5347-8.9879.0948-.5727.4013-1.0887.8585-1.4455.4573-.3569 1.0318-.5283 1.6094-.4804.6358.0686 2.6856.6471 2.3822 5.2028-.3907 5.8637 2.0926 7.5133 5.2374 9.6024 3.0352 2.0152 6.4748 4.2999 8.0173 10.6426.0484.1991.0158.4094-.0906.5845-.1063.1752-.2778.3008-.4767.3493-.1988.0484-.4088.0158-.5836-.0907-.1749-.1066-.3003-.2783-.3487-.4775-1.3985-5.7573-4.4354-7.7725-7.3694-9.7225-3.2786-2.1783-6.3737-4.2348-5.9247-10.9859.156-2.3586-.413-3.5018-1.0077-3.5653-.1818-.0071-.3601.0511-.5028.1641-.1426.113-.2403.2734-.2753.4521-.5484 3.6958-.7198 6.6791-.5141 8.8694.221 2.2933.7866 2.889.9545 3.016.1188.0918.2082.2162.2574.3581.0493.1419.0561.2951.0197.4408s-.1144.2777-.2244.3797c-.1101.102-.2475.1696-.3954.1946-.4593.0739-.9803-.1716-1.551-.7072-.4096-.3896-3.9778-4.0545-3.0695-12.4192.1714-1.5912-.5878-2.2607-1.1431-2.3225-.2331-.0257-.5227.0378-.5741.4875-.0549.4927-.1423 1.0609-.2331 1.6616-.2159 1.4231-.4867 3.1945-.5021 5.0021-.0412 4.3102 2.5038 7.4137 2.7969 7.7588l.0463.0514c.1335.1543.2006.3553.1866.559s-.1079.3935-.2612.528c-.1534.1346-.3537.2028-.5571.1899-.2034-.013-.3935-.1061-.5286-.2589l-.0634-.0721-.0445-.0498c-2.1063-2.3482-5.6625-7.4309-5.6625-15.0679 0-1.4951-.74209-2.8237-1.47389-3.3627-.27079-.2008-.43531-.2111-.46273-.2025s-.18338.218-.21766.7982c-.40103 6.7374.6941 11.7274 3.55108 16.1784.099.155.1395.3403.1142.5226-.0252.1822-.1146.3494-.252.4716-.1374.1221-.3139.191-.4975.1945-.1837.0034-.3626-.059-.5044-.1759l-.0669-.0549c-3.01466-2.4148-5.5747-5.3492-7.55963-8.6652-.27078-.4549-.95631-.6076-1.38991-.4394-.37018.1425-.49701.515-.37875 1.0934.34276 1.6754 1.80465 4.2828 3.65729 7.5837l.50215.8961c2.59986 4.6467 6.28115 6.3512 10.18005 8.1742 1.2426.5784 2.5279 1.1775 3.7996 1.8882 5.4465 3.0125 7.8236 10.198 7.9212 10.5035.0376.1159.0473.2391.0283.3595-.0191.1204-.0663.2346-.1379.3332-.0715.0986-.1653.1788-.2738.2342-.1084.0553-.2284.0842-.3501.0842z" fill="#dea81e"/><path d="m33.3443 30.6026s-13.3575-21.69712 17.7809-29.668762c6.6222 23.180262-17.7809 29.668762-17.7809 29.668762z" fill="#4550e5"/><path d="m32.9892 31.4952-.3016-.4875c-.2126-.3433-5.1844-8.5827-1.791-16.9938 2.5964-6.43878 9.3386-11.09062 20.0363-13.830224l.7266-.18538498.2057.72094898c1.9589 6.85417 1.4567 12.96506-1.491 18.16796-5.2666 9.2933-16.3619 12.3351-16.8315 12.4586zm17.5923-29.62073c-9.7687 2.62975-15.9093 6.90567-18.2538 12.71963-2.6479 6.5606.401 13.2174 1.3864 15.0884 2.3068-.7467 11.0387-3.9944 15.325-11.5661 2.6273-4.6432 3.1449-10.10356 1.5424-16.24193z" fill="#dea81e"/><path d="m37.0015 44.1169c-.1309.0005-.2598-.0325-.3744-.0959-.1145-.0633-.211-.155-.2803-.2663-.1251-.1991-3.066-4.9642-3.5579-11.6879-.3054-3.8725.3364-7.7612 1.8698-11.3292 1.9041-4.4253 5.2134-8.4523 9.8373-11.96952.1633-.11384.3643-.16006.5608-.129.1966.03107.3735.13702.4939.2957.1203.15868.1748.35783.152.5558-.0228.19798-.1211.37947-.2743.50655-4.408 3.35417-7.5546 7.17347-9.3541 11.35327-1.4324 3.3395-2.0324 6.9779-1.7481 10.6013.4645 6.3513 3.2991 10.9362 3.3265 10.9859.0737.1167.1147.251.1189.3889.0041.138-.0288.2745-.0954.3953-.0665.1209-.1642.2216-.2829.2917s-.254.107-.3918.1068z" fill="#dea81e"/><path d="m24.5898 68.2276c0-22.0473 14.996-14.57 14.0619-28.6148-.3787-5.6818 3.0643-4.8149 3.3163-3.1138 1.2185 8.1999.3976 11.7463-.7421 12.6149.8569.1373 4.6427-3.9069 3.7327-12.2819-.3753-3.4486 3.018-4.0562 3.2563-2.005.1868 1.6411.718 4.1198.742 6.7444.0446 4.9316-3.0249 8.3149-3.0249 8.3149.3788-.4583 5.5785-5.6955 5.5785-14.673 0-3.555 3.4979-6.1109 3.695-2.8152.4542 7.649-1.066 12.5806-3.6727 16.6505 2.9708-2.3703 5.4944-5.2538 7.4517-8.514.8261-1.3922 3.6847-1.2445 3.186 1.2015-.3976 1.9518-2.1269 4.9248-4.2417 8.7047-3.5716 6.3803-9.037 7.4515-14.2796 10.3524-5.2425 2.901-4.4045 7.4413-4.4045 7.4413z" fill="#efc73f"/><path d="m39.2464 69h-14.6549c-.2044-.0004-.4003-.082-.5448-.2267-.1445-.1448-.2259-.341-.2264-.5457 0-12.5394 4.881-15.9639 8.8022-18.7103 3.1569-2.2161 5.6556-3.967 5.2614-9.8479-.1045-1.5723.06-2.8237.4902-3.718.5638-1.1758 1.4276-1.435 1.8852-1.4848.5776-.0479 1.1521.1236 1.6093.4804.4573.3568.7637.8728.8586 1.4455.5587 3.6769.7301 6.7169.5398 8.9827.7644-1.8504 1.3437-4.6158.9255-8.4591-.1508-1.3956.2416-2.3053.5964-2.8237.2139-.3258.4952-.6018.8249-.8091s.7001-.3412 1.086-.3925c1.1825-.1322 2.1406.6454 2.276 1.8487.0531.4635.1371 1.0162.2262 1.6033.2245 1.471.5021 3.3026.5141 5.2183v.2317c.6774-2.1258 1.0186-4.3447 1.0112-6.5761.0001-1.2387.3656-2.4498 1.0506-3.4811.6718-.9974 1.5527-1.6067 2.3565-1.6308.8037-.024 1.7275.5545 1.8286 2.2504.3085 5.1994-.2382 9.4239-1.7532 13.1779 1.5716-1.6387 2.9516-3.4517 4.1131-5.4036.6273-1.0574 2.0943-1.5449 3.2717-1.0918.8569.3331 1.6573 1.2531 1.3334 2.8444-.3908 1.9122-1.9058 4.6123-3.8236 8.0317l-.5021.896c-2.8432 5.0793-6.9256 6.9795-10.8742 8.8179-1.2185.5682-2.4799 1.1552-3.7036 1.8333-4.7027 2.6005-4.0274 6.5846-4.0189 6.6241.0207.1116.0165.2263-.0121.336-.0286.1098-.081.2119-.1535.2991-.0725.0871-.1633.1572-.2659.2053-.1025.0481-.2144.073-.3277.0728zm-13.8819-1.5449h13.0541c0-1.6084.5844-4.9779 4.8536-7.3451 1.2716-.7037 2.557-1.3028 3.8012-1.8882 3.8972-1.8143 7.5785-3.5275 10.1784-8.1741l.5039-.8961c1.8509-3.3009 3.3128-5.9083 3.6555-7.5837.1183-.5819 0-.9509-.377-1.0934-.4336-.1717-1.1208-.0155-1.3899.4394-1.9864 3.3165-4.5482 6.2509-7.5648 8.6651l-.0651.055c-.1419.1169-.3207.1793-.5044.1759-.1837-.0035-.3601-.0724-.4975-.1946-.1375-.1221-.2268-.2893-.2521-.4716-.0253-.1822.0153-.3675.1143-.5225 2.8569-4.451 3.952-9.441 3.551-16.1784-.036-.5802-.1834-.7776-.2211-.7982s-.1885 0-.461.2025c-.7318.539-1.4722 1.8676-1.4722 3.3645 0 7.6352-3.5544 12.7178-5.6727 15.0661l-.0446.0515-.0617.0703c-.1347.1544-.3252.2488-.5294.2625-.2043.0136-.4056-.0545-.5597-.1895s-.2483-.3257-.262-.5303c-.0136-.2046.0544-.4062.1892-.5606l.048-.0532c.2964-.3433 2.8363-3.4502 2.7969-7.757-.0171-1.8076-.2862-3.579-.5039-5.0021-.0908-.6007-.1713-1.1689-.233-1.6616-.0515-.4497-.3428-.5149-.5742-.4875-.5535.0618-1.3162.7313-1.1431 2.3225.6855 6.3512-1.2219 10.6598-3.0694 12.4192-.569.5425-1.0917.7811-1.551.7072-.1479-.025-.2853-.0926-.3954-.1946s-.1881-.234-.2245-.3797-.0295-.2989.0197-.4408.1387-.2663.2574-.3581c.1714-.1287.7318-.7244.9546-3.0177.2108-2.1903.0394-5.1736-.5142-8.8694-.0349-.1784-.1323-.3386-.2746-.4515-.1424-.113-.3203-.1714-.5017-.1647-.5964.0652-1.1654 1.2016-1.0077 3.5653.4473 6.7477-2.6427 8.9174-5.9144 11.2141-3.7242 2.6229-7.9436 5.5857-8.1304 16.6831z" fill="#dea81e"/></g></svg>

<svg width="63" height="69" viewBox="0 0 63 69" fill="none" xmlns="http://www.w3.org/2000/svg">
<g clip-path="url(#clip0_2110_20856)">
<path d="M37.627 45.6841C34.5421 33.0349 23.5428 37.3005 24.3466 25.2057C24.7237 19.5257 21.2823 20.3994 21.0287 22.0936C19.8101 30.2936 20.6328 33.8399 21.7707 34.7068C20.9138 34.8458 17.128 30.8017 18.0398 22.4266C18.4134 18.9781 15.0217 18.3704 14.7835 20.4217C14.5984 22.0627 14.0671 24.5414 14.0431 27.166C13.9969 32.0959 17.068 35.481 17.068 35.481C16.6824 35.0226 11.4895 29.7855 11.4895 20.8114C11.4895 17.2581 7.98992 14.7022 7.79455 17.9979C7.33867 25.6469 8.85883 30.5785 11.4655 34.6484C8.49352 32.2719 5.96988 29.3821 4.01386 26.1155C3.1878 24.7216 0.327437 24.871 0.827873 27.3171C1.22548 29.2688 2.95301 32.2418 5.06957 36.02C8.64117 42.4021 14.1048 43.4732 19.3491 46.3742C24.5934 49.2751 26.9088 56.44 26.9088 56.44L37.627 45.6841Z" fill="#EFC73F"/>
<path d="M26.9092 57.2193C26.7461 57.2192 26.5873 57.1673 26.4555 57.071C26.3237 56.9748 26.2257 56.8392 26.1757 56.6837C26.1534 56.6151 23.8826 49.7712 18.9777 47.0556C17.754 46.3793 16.4926 45.7922 15.2724 45.2241C11.3306 43.3856 7.24144 41.4854 4.39821 36.4044L3.89606 35.5101C1.9783 32.0908 0.468426 29.3906 0.0742475 27.4784C-0.251378 25.8872 0.548974 24.9654 1.40588 24.6341C2.58328 24.1792 4.05202 24.6684 4.67756 25.7258C5.83955 27.6775 7.21949 29.4904 8.79073 31.1295C7.274 27.3754 6.73415 23.151 7.03578 17.9516C7.1369 16.2539 8.04865 15.6789 8.86443 15.7012C9.68021 15.7235 10.5491 16.3346 11.2209 17.3319C11.9033 18.3634 12.2659 19.574 12.2629 20.8113C12.2554 23.0433 12.5966 25.2628 13.2741 27.3892C13.2741 27.3113 13.2741 27.2341 13.2741 27.1574C13.2912 25.24 13.5706 23.4102 13.7882 21.9374C13.8773 21.3521 13.9596 20.7993 14.0145 20.3341C14.1498 19.1326 15.1079 18.355 16.2921 18.4871C16.6779 18.5383 17.0481 18.6721 17.3775 18.8794C17.707 19.0868 17.988 19.3628 18.2013 19.6887C18.5578 20.2037 18.9503 21.1169 18.7977 22.5124C18.3796 26.3558 18.9588 29.1211 19.7232 30.9699C19.5347 28.7006 19.7112 25.6657 20.2579 21.982C20.3527 21.4093 20.6592 20.8933 21.1164 20.5365C21.5737 20.1796 22.1482 20.0082 22.7258 20.0561C23.3616 20.1247 25.4114 20.7032 25.108 25.2589C24.7173 31.1226 27.2006 32.7722 30.3454 34.8613C33.3806 36.8765 36.8202 39.1612 38.3627 45.5039C38.4111 45.703 38.3785 45.9133 38.2721 46.0884C38.1658 46.2636 37.9943 46.3892 37.7954 46.4377C37.5966 46.4861 37.3866 46.4535 37.2118 46.347C37.0369 46.2404 36.9115 46.0687 36.8631 45.8695C35.4646 40.1122 32.4277 38.097 29.4937 36.147C26.2151 33.9687 23.12 31.9122 23.569 25.1611C23.725 22.8025 23.156 21.6593 22.5613 21.5958C22.3795 21.5887 22.2012 21.6469 22.0585 21.7599C21.9159 21.8729 21.8182 22.0333 21.7832 22.212C21.2348 25.9078 21.0634 28.8911 21.2691 31.0814C21.4901 33.3747 22.0557 33.9704 22.2236 34.0974C22.3424 34.1892 22.4318 34.3136 22.481 34.4555C22.5303 34.5974 22.5371 34.7506 22.5007 34.8963C22.4643 35.042 22.3863 35.174 22.2763 35.276C22.1662 35.378 22.0288 35.4456 21.8809 35.4706C21.4216 35.5445 20.9006 35.299 20.3299 34.7634C19.9203 34.3738 16.3521 30.7089 17.2604 22.3442C17.4318 20.753 16.6726 20.0835 16.1173 20.0217C15.8842 19.996 15.5946 20.0595 15.5432 20.5092C15.4883 21.0019 15.4009 21.5701 15.3101 22.1708C15.0942 23.5939 14.8234 25.3653 14.808 27.1729C14.7668 31.4831 17.3118 34.5866 17.6049 34.9317L17.6512 34.9831C17.7847 35.1374 17.8518 35.3384 17.8378 35.5421C17.8238 35.7458 17.7299 35.9356 17.5766 36.0701C17.4232 36.2047 17.2229 36.2729 17.0195 36.26C16.8161 36.247 16.626 36.1539 16.4909 36.0011L16.4275 35.929L16.383 35.8792C14.2767 33.531 10.7205 28.4483 10.7205 20.8113C10.7205 19.3162 9.97841 17.9876 9.24661 17.4486C8.97582 17.2478 8.8113 17.2375 8.78388 17.2461C8.75646 17.2547 8.6005 17.4641 8.56622 18.0443C8.16519 24.7817 9.26032 29.7717 12.1173 34.2227C12.2163 34.3777 12.2568 34.563 12.2315 34.7453C12.2063 34.9275 12.1169 35.0947 11.9795 35.2169C11.8421 35.339 11.6656 35.4079 11.482 35.4114C11.2983 35.4148 11.1194 35.3524 10.9776 35.2355L10.9107 35.1806C7.89604 32.7658 5.336 29.8314 3.35107 26.5154C3.08029 26.0605 2.39476 25.9078 1.96116 26.076C1.59098 26.2185 1.46415 26.591 1.58241 27.1694C1.92517 28.8448 3.38706 31.4522 5.2397 34.7531L5.74185 35.6492C8.34171 40.2959 12.023 42.0004 15.9219 43.8234C17.1645 44.4018 18.4498 45.0009 19.7215 45.7116C25.168 48.7241 27.5451 55.9096 27.6427 56.2151C27.6803 56.331 27.69 56.4542 27.671 56.5746C27.6519 56.695 27.6047 56.8092 27.5331 56.9078C27.4616 57.0064 27.3678 57.0866 27.2593 57.142C27.1509 57.1973 27.0309 57.2262 26.9092 57.2262V57.2193Z" fill="#DEA81E"/>
<path d="M33.3443 30.6026C33.3443 30.6026 19.9868 8.90548 51.1252 0.933838C57.7474 24.1141 33.3443 30.6026 33.3443 30.6026Z" fill="#4550E5"/>
<path d="M32.9892 31.4952L32.6876 31.0077C32.475 30.6644 27.5032 22.425 30.8966 14.0139C33.493 7.57512 40.2352 2.92328 50.9329 0.183676L51.6595 -0.00170898L51.8652 0.71924C53.8241 7.57341 53.3219 13.6843 50.3742 18.8872C45.1076 28.1805 34.0123 31.2223 33.5427 31.3458L32.9892 31.4952ZM50.5815 1.87447C40.8128 4.50422 34.6722 8.78014 32.3277 14.5941C29.6798 21.1547 32.7287 27.8115 33.7141 29.6825C36.0209 28.9358 44.7528 25.6881 49.0391 18.1164C51.6664 13.4732 52.184 8.01284 50.5815 1.87447Z" fill="#DEA81E"/>
<path d="M37.0015 44.1169C36.8706 44.1174 36.7417 44.0844 36.6271 44.021C36.5126 43.9577 36.4161 43.866 36.3468 43.7547C36.2217 43.5556 33.2808 38.7905 32.7889 32.0668C32.4835 28.1943 33.1253 24.3056 34.6587 20.7376C36.5628 16.3123 39.8721 12.2853 44.496 8.76808C44.6593 8.65424 44.8603 8.60802 45.0568 8.63908C45.2534 8.67015 45.4303 8.7761 45.5507 8.93478C45.671 9.09346 45.7255 9.29261 45.7027 9.49058C45.6799 9.68856 45.5816 9.87005 45.4284 9.99713C41.0204 13.3513 37.8738 17.1706 36.0743 21.3504C34.6419 24.6899 34.0419 28.3283 34.3262 31.9517C34.7907 38.303 37.6253 42.8879 37.6527 42.9376C37.7264 43.0543 37.7674 43.1886 37.7716 43.3265C37.7757 43.4645 37.7428 43.601 37.6762 43.7218C37.6097 43.8427 37.512 43.9434 37.3933 44.0135C37.2746 44.0836 37.1393 44.1205 37.0015 44.1203V44.1169Z" fill="#DEA81E"/>
<path d="M24.5898 68.2276C24.5898 46.1803 39.5858 53.6576 38.6517 39.6128C38.273 33.931 41.716 34.7979 41.968 36.499C43.1865 44.6989 42.3656 48.2453 41.2259 49.1139C42.0828 49.2512 45.8686 45.207 44.9586 36.832C44.5833 33.3834 47.9766 32.7758 48.2149 34.827C48.4017 36.4681 48.9329 38.9468 48.9569 41.5714C49.0015 46.503 45.932 49.8863 45.932 49.8863C46.3108 49.428 51.5105 44.1908 51.5105 35.2133C51.5105 31.6583 55.0084 29.1024 55.2055 32.3981C55.6597 40.0471 54.1395 44.9787 51.5328 49.0486C54.5036 46.6783 57.0272 43.7948 58.9845 40.5346C59.8106 39.1424 62.6692 39.2901 62.1705 41.7361C61.7729 43.6879 60.0436 46.6609 57.9288 50.4408C54.3572 56.8211 48.8918 57.8923 43.6492 60.7932C38.4067 63.6942 39.2447 68.2345 39.2447 68.2345L24.5898 68.2276Z" fill="#EFC73F"/>
<path d="M39.2464 69H24.5915C24.3871 68.9996 24.1912 68.918 24.0467 68.7733C23.9022 68.6285 23.8208 68.4323 23.8203 68.2276C23.8203 55.6882 28.7013 52.2637 32.6225 49.5173C35.7794 47.3012 38.2781 45.5503 37.8839 39.6694C37.7794 38.0971 37.9439 36.8457 38.3741 35.9514C38.9379 34.7756 39.8017 34.5164 40.2593 34.4666C40.8369 34.4187 41.4114 34.5902 41.8686 34.947C42.3259 35.3038 42.6323 35.8198 42.7272 36.3925C43.2859 40.0694 43.4573 43.1094 43.267 45.3752C44.0314 43.5248 44.6107 40.7594 44.1925 36.9161C44.0417 35.5205 44.4341 34.6108 44.7889 34.0924C45.0028 33.7666 45.2841 33.4906 45.6138 33.2833C45.9435 33.076 46.3139 32.9421 46.6998 32.8908C47.8823 32.7586 48.8404 33.5362 48.9758 34.7395C49.0289 35.203 49.1129 35.7557 49.202 36.3428C49.4265 37.8138 49.7041 39.6454 49.7161 41.5611V41.7928C50.3935 39.667 50.7347 37.4481 50.7273 35.2167C50.7274 33.978 51.0929 32.7669 51.7779 31.7356C52.4497 30.7382 53.3306 30.1289 54.1344 30.1048C54.9381 30.0808 55.8619 30.6593 55.963 32.3552C56.2715 37.5546 55.7248 41.7791 54.2098 45.5331C55.7814 43.8944 57.1614 42.0814 58.3229 40.1295C58.9502 39.0721 60.4172 38.5846 61.5946 39.0377C62.4515 39.3708 63.2519 40.2908 62.928 41.8821C62.5372 43.7943 61.0222 46.4944 59.1044 49.9138L58.6023 50.8098C55.7591 55.8891 51.6767 57.7893 47.7281 59.6277C46.5096 60.1959 45.2482 60.7829 44.0245 61.461C39.3218 64.0615 39.9971 68.0456 40.0056 68.0851C40.0263 68.1967 40.0221 68.3114 39.9935 68.4211C39.9649 68.5309 39.9125 68.633 39.84 68.7202C39.7675 68.8073 39.6767 68.8774 39.5741 68.9255C39.4716 68.9736 39.3597 68.9985 39.2464 68.9983V69ZM25.3645 67.4551H38.4186C38.4186 65.8467 39.003 62.4772 43.2722 60.11C44.5438 59.4063 45.8292 58.8072 47.0734 58.2218C50.9706 56.4075 54.6519 54.6943 57.2518 50.0477L57.7557 49.1516C59.6066 45.8507 61.0685 43.2433 61.4112 41.5679C61.5295 40.986 61.4112 40.617 61.0342 40.4745C60.6006 40.3028 59.9134 40.459 59.6443 40.9139C57.6579 44.2304 55.0961 47.1648 52.0795 49.579L52.0144 49.634C51.8725 49.7509 51.6937 49.8133 51.51 49.8099C51.3263 49.8064 51.1499 49.7375 51.0125 49.6153C50.875 49.4932 50.7857 49.326 50.7604 49.1437C50.7351 48.9615 50.7757 48.7762 50.8747 48.6212C53.7316 44.1702 54.8267 39.1802 54.4257 32.4428C54.3897 31.8626 54.2423 31.6652 54.2046 31.6446C54.1669 31.624 54.0161 31.6446 53.7436 31.8471C53.0118 32.3861 52.2714 33.7147 52.2714 35.2116C52.2714 42.8468 48.717 47.9294 46.5987 50.2777L46.5541 50.3292L46.4924 50.3995C46.3577 50.5539 46.1672 50.6483 45.963 50.662C45.7587 50.6756 45.5574 50.6075 45.4033 50.4725C45.2492 50.3375 45.155 50.1468 45.1413 49.9422C45.1277 49.7376 45.1957 49.536 45.3305 49.3816L45.3785 49.3284C45.6749 48.9851 48.2148 45.8782 48.1754 41.5714C48.1583 39.7638 47.8892 37.9924 47.6715 36.5693C47.5807 35.9686 47.5002 35.4004 47.4385 34.9077C47.387 34.458 47.0957 34.3928 46.8643 34.4202C46.3108 34.482 45.5481 35.1515 45.7212 36.7427C46.4067 43.0939 44.4993 47.4025 42.6518 49.1619C42.0828 49.7044 41.5601 49.943 41.1008 49.8691C40.9529 49.8441 40.8155 49.7765 40.7054 49.6745C40.5953 49.5725 40.5173 49.4405 40.4809 49.2948C40.4445 49.1491 40.4514 48.9959 40.5006 48.854C40.5498 48.7121 40.6393 48.5877 40.758 48.4959C40.9294 48.3672 41.4898 47.7715 41.7126 45.4782C41.9234 43.2879 41.752 40.3046 41.1984 36.6088C41.1635 36.4304 41.0661 36.2702 40.9238 36.1573C40.7814 36.0443 40.6035 35.9859 40.4221 35.9926C39.8257 36.0578 39.2567 37.1942 39.4144 39.5579C39.8617 46.3056 36.7717 48.4753 33.5 50.772C29.7758 53.3949 25.5564 56.3577 25.3696 67.4551H25.3645Z" fill="#DEA81E"/>
</g>
<defs>
<clipPath id="clip0_2110_20856">
<rect width="63" height="69" fill="white"/>
</clipPath>
</defs>
</svg>
